X: 38
return to=20
forward, turn=20
same.-First lady and=20
and foot lady=20
to places.-=20
back to back. First
hands, left hands=20
March: ladies=20
and stop.
M:C|
L:1/8
K:G
ud3 "4"e dBgB | dBgB aAAB | d3 e dBgB | AcBA BGGB |=20
uB|\
dgbg agbg | dgbg ageg | dgbg agbg | dedc BGGE |=20


